images/svg/cyber.svg

<svg width="55" height="55" viewBox="0 0 55 55" fill="none" xmlns="http://www.w3.org/2000/svg">
<path fill-rule="evenodd" clip-rule="evenodd" d="M29.2882 6.20428C28.3802 5.9302 27.4059 5.93196 26.4989 6.20932L13.2096 10.2736C11.2977 10.8583 10 12.5601 10 14.4825V32.5486C10 34.295 10.528 36.1142 11.7656 37.6089C16.2942 43.0783 22.8818 47.5324 25.6568 49.2891C27.3107 50.3361 29.4518 50.2095 30.9645 49.0225C33.2828 47.2031 38.4712 42.9998 43.5066 38.0048C45.1455 36.379 46 34.2153 46 32.0134V14.4889C46 12.5603 44.6941 10.8546 42.7738 10.2749L29.2882 6.20428ZM27.9019 10.4182L41.3875 14.4889V32.0134C41.3875 33.1291 40.9553 34.1751 40.1885 34.9358C35.3811 39.7045 30.4012 43.75 28.1134 45.5481C25.3761 43.809 19.3892 39.7061 15.3795 34.8634C14.8894 34.2715 14.6126 33.4655 14.6126 32.5486V14.4825L27.9019 10.4182Z" fill="black"/>
<path d="M28.384 31.967L38.2096 22.5553L35.3727 19.8379L25.8744 28.936L21.7922 25.0258L18.9553 27.7432L23.3649 31.967C24.7509 33.2946 26.998 33.2946 28.384 31.967Z" fill="#A88768"/>
</svg>

<svg width="55" height="55" fill="none" xmlns="http://www.w3.org/2000/svg"><path fill-rule="evenodd" clip-rule="evenodd" d="M29.288 6.204a4.806 4.806 0 0 0-2.79.005L13.21 10.274c-1.912.584-3.21 2.286-3.21 4.209v18.066c0 1.746.528 3.565 1.766 5.06 4.528 5.47 11.116 9.923 13.89 11.68a4.626 4.626 0 0 0 5.309-.267C33.282 47.203 38.47 43 43.507 38.005A8.418 8.418 0 0 0 46 32.013V14.49c0-1.929-1.306-3.634-3.226-4.214l-13.486-4.07Zm-1.386 4.214 13.486 4.07v17.525a4.098 4.098 0 0 1-1.2 2.923c-4.807 4.769-9.787 8.814-12.075 10.612-2.737-1.739-8.724-5.842-12.733-10.685-.49-.591-.767-1.398-.767-2.314V14.483l13.289-4.065Z" fill="#000"/><path d="m28.384 31.967 9.826-9.412-2.837-2.717-9.499 9.098-4.082-3.91-2.837 2.717 4.41 4.224c1.386 1.328 3.633 1.328 5.019 0Z" fill="#A88768"/></svg>
